packages/sights/assets/overlays/LE9h1xh0.svg

<svg width="500" height="375" viewBox="0 0 500 375" fill="none" xmlns="http://www.w3.org/2000/svg">
<path d="M492.93 19.64C366.19 -1.45006 258.44 24.54 258.44 24.54C234.59 34 179 77.43 179 77.43C79.3302 90.88 26.4402 136.13 26.4402 136.13L19.6602 166.7L8.66016 198.5C8.66016 198.5 11.3302 247.8 23.9402 263.62C23.9402 263.62 29.6802 297.55 40.2202 314.75C40.2202 314.75 104.66 352.89 159.69 344.33" stroke="white" stroke-miterlimit="10"/>
<path d="M159.94 344.52C154.82 320.52 166.88 285.96 192.99 256.27C227.91 216.54 274.73 200.62 297.57 220.69C311.24 232.69 313.22 254.9 305.12 279.3" stroke="white" stroke-miterlimit="10"/>
<path d="M261.269 212.91L289.869 231.11L301.549 243.4C315.459 263.02 302.919 304.47 272.549 334.89C240.219 367.21 199.209 378.61 180.939 360.34L159.539 326" stroke="white" stroke-miterlimit="10"/>
<path d="M305.119 279.3L492.929 189.8" stroke="white" stroke-miterlimit="10"/>
<path d="M466.631 202.33C466.631 202.33 467.291 206.46 470.101 208.47L492.931 217.3" stroke="white" stroke-miterlimit="10"/>
<path d="M309.9 256.74L492.93 174.65" stroke="white" stroke-miterlimit="10"/>
<path d="M258.439 24.5404C258.439 24.5404 341.059 20.3304 388.299 30.8804C388.299 30.8804 357.619 54.2703 309.899 115.49L296.999 119.62H267.459C267.459 119.62 132.719 96.2204 171.079 78.5704" stroke="white" stroke-miterlimit="10"/>
<path d="M330 128.94C330 128.94 348.5 124.66 352.32 124.51L408.42 122.22L412.55 119.62C412.55 119.62 421.87 107.39 424.47 87.0596C424.47 87.0596 387.63 84.1497 380.47 87.9697L356 101.9L355.88 105.52L357.2 115.38L331.64 119.16C330.556 122.434 330.002 125.861 330 129.31" stroke="white" stroke-miterlimit="10"/>
<path d="M22.0009 156.24L24.7509 170.24L36.9809 192.56L45.0809 202.34L118.451 212.93L171.001 211.18L168.861 216.38L146.081 242.38C146.081 242.38 133.551 255.07 60.7809 244.67L38.4609 251.25L35.8709 249.87C35.8709 249.87 13.5809 216.75 16.9309 174.6" stroke="white" stroke-miterlimit="10"/>
<path d="M297 119.62L298.53 121.83L287.06 139.83L284 142.78C284 142.78 149.33 184.67 117 212.91" stroke="white" stroke-miterlimit="10"/>
<path d="M56.6602 275.24L58.8002 287.62L76.3802 299.08L112.3 308.87L115.97 306.57C115.97 306.57 113.22 284.41 112.91 283.8C111.568 282.338 110.139 280.959 108.63 279.67L72.4002 271.87L56.6602 275.24Z" stroke="white" stroke-miterlimit="10"/>
<path d="M331.609 119.16C331.609 119.16 380.499 44.41 411.459 36.38C411.459 36.38 447.819 23.08 492.929 35.01" stroke="white" stroke-miterlimit="10"/>
<path d="M420.43 103.9C420.43 103.9 492.94 84.7595 493.55 83.6895" stroke="white" stroke-miterlimit="10"/>
<path d="M455.829 30.0498C455.829 30.0498 458.999 67.9999 456.999 93.7999L460.999 98.2899L462.369 119.62C462.369 119.62 453.369 167.92 445.859 181.38L445.119 196.1" stroke="white" stroke-miterlimit="10"/>
<path d="M45.0405 202.32L43.8105 207.06L60.7805 244.66" stroke="white" stroke-miterlimit="10"/>
</svg>

<svg width="500" height="375" fill="none" xmlns="http://www.w3.org/2000/svg"><path d="M492.93 19.64c-126.74-21.09-234.49 4.9-234.49 4.9C234.59 34 179 77.43 179 77.43c-99.67 13.45-152.56 58.7-152.56 58.7l-6.78 30.57-11 31.8s2.67 49.3 15.28 65.12c0 0 5.74 33.93 16.28 51.13 0 0 64.44 38.14 119.47 29.58" stroke="#fff" stroke-miterlimit="10"/><path d="M159.94 344.52c-5.12-24 6.94-58.56 33.05-88.25 34.92-39.73 81.74-55.65 104.58-35.58 13.67 12 15.65 34.21 7.55 58.61" stroke="#fff" stroke-miterlimit="10"/><path d="m261.269 212.91 28.6 18.2 11.68 12.29c13.91 19.62 1.37 61.07-29 91.49-32.33 32.32-73.34 43.72-91.61 25.45l-21.4-34.34M305.119 279.3l187.81-89.5M466.631 202.33s.66 4.13 3.47 6.14l22.83 8.83M309.9 256.74l183.03-82.09M258.439 24.54s82.62-4.21 129.86 6.34c0 0-30.68 23.39-78.4 84.61l-12.9 4.13h-29.54s-134.74-23.4-96.38-41.05M330 128.94s18.5-4.28 22.32-4.43l56.1-2.29 4.13-2.6s9.32-12.23 11.92-32.56c0 0-36.84-2.91-44 .91L356 101.9l-.12 3.62 1.32 9.86-25.56 3.78a32.355 32.355 0 0 0-1.64 10.15M22 156.24l2.75 14 12.23 22.32 8.1 9.78 73.371 10.59 52.55-1.75-2.14 5.2-22.78 26s-12.53 12.69-85.3 2.29l-22.32 6.58-2.59-1.38s-22.29-33.12-18.94-75.27" stroke="#fff" stroke-miterlimit="10"/><path d="m297 119.62 1.53 2.21-11.47 18-3.06 2.95s-134.67 41.89-167 70.13M56.66 275.24l2.14 12.38 17.58 11.46 35.92 9.79 3.67-2.3s-2.75-22.16-3.06-22.77a49.085 49.085 0 0 0-4.28-4.13l-36.23-7.8-15.74 3.37ZM331.609 119.16s48.89-74.75 79.85-82.78c0 0 36.36-13.3 81.47-1.37M420.43 103.9s72.51-19.14 73.12-20.21" stroke="#fff" stroke-miterlimit="10"/><path d="M455.829 30.05s3.17 37.95 1.17 63.75l4 4.49 1.37 21.33s-9 48.3-16.51 61.76l-.74 14.72M45.04 202.32l-1.23 4.74 16.97 37.6" stroke="#fff" stroke-miterlimit="10"/></svg>
